X:1
T: City of Angels
P:Play A B A C B C
R:Strathspey
Q: 128
K:G
M:4/4
L:1/16
G3A|"A"B3G d3B A4 d4|G4 B3G F4 B4|E4 G3E D4 G3A|B3G dB3 A4 A2Bc|
B3G d3B A4d4|G4 B3G F4B4|E4 G3E D4 G3A|B4 B3A G4D4|
"B"B,D3 DG3 CE3 EG3|B,D3 D3E F4D4|B,D3 DG3 CE3 EG3|DG3 G3F G6D2|
B,D3 DG3 CE3 EG3|B,D3 D3E F4D4|B,D3 DG3 CE3 EG3|DG3 G3F G4 GABc|
"C"b3g d'3b a3f d3f|e3c b3g f3^d B4|e3c g3e d3B G3B|c3d BG3 A4 ((3dfa) |
b3g d'3b a3f d3f|e3c b3g f3^d B4|e3c g3e d3B dg3|1fa3 d3f g3d B2G2:|2fga2 d3f g4||
